Newaita-dark/apps/32/com.github.dcharles525.pho.svg

<svg height="32" viewBox="0 0 32 32" width="32" xmlns="http://www.w3.org/2000/svg" xmlns:xlink="http://www.w3.org/1999/xlink"><linearGradient id="a"><stop offset="0" stop-opacity=".313726"/><stop offset=".222222" stop-opacity=".27451"/><stop offset="1" stop-opacity="0"/></linearGradient><radialGradient id="b" cx="450.908936" cy="189.579361" gradientTransform="matrix(.00000017 -.0781325 -.140638 -.0000001 41.215544 63.595329)" gradientUnits="userSpaceOnUse" r="21.166656" xlink:href="#a"/><radialGradient id="c" cx="450.908936" cy="189.579361" gradientTransform="matrix(-.00000017 .0781325 .140638 .0000001 -12.770116 -7.527482)" gradientUnits="userSpaceOnUse" r="21.166656" xlink:href="#a"/><radialGradient id="d" cx="450.908936" cy="189.579361" gradientTransform="matrix(-.00000017 -.0781325 .140638 -.0000001 -12.770116 63.595329)" gradientUnits="userSpaceOnUse" r="21.166656" xlink:href="#a"/><radialGradient id="e" cx="450.908936" cy="189.579361" gradientTransform="matrix(.00000017 .0781325 -.140638 .0000001 41.215542 -7.527483)" gradientUnits="userSpaceOnUse" r="21.166656" xlink:href="#a"/><linearGradient id="f" gradientTransform="matrix(.00381716 0 0 .062506 13.248104 13.438784)" gradientUnits="userSpaceOnUse" x1="255.323059" x2="255.323044" y1="233.5" y2="254.666656"><stop offset="0" stop-opacity=".27451"/><stop offset="1" stop-opacity="0"/></linearGradient><linearGradient id="g" gradientUnits="userSpaceOnUse" x1="15.8766424" x2="15.8766424" y1="28.1453616" y2="2.75030579656"><stop offset="0" stop-color="#66bb6a"/><stop offset="1" stop-color="#81c784"/></linearGradient><path d="m14.882812 28.035156h2.648438v-1.324218h-2.648438zm0 0" fill="url(#b)"/><path d="m13.5625 28.035156h-2.648438v1.320313h2.648438zm0 0" fill="url(#c)"/><path d="m13.5625 28.035156h-2.648438v-1.324218h2.648438zm0 0" fill="url(#d)"/><path d="m14.882812 28.035156h2.648438v1.320313h-2.648438zm0 0" fill="url(#e)"/><path d="m13.5625 27.703125h1.320312v1.652344h-1.320312zm0 0" fill="url(#f)"/><path d="m18.734375 3.226562c-1.261719-.726562-3.339844-.046874-4.347656 1.699219-1.15625 2 1.082031 5.429688 1.117187 9.144531-1.832031-3.234374-1.609375-7.324218-3.605468-8.476562-1.75-1.007812-3.886719-.558594-4.617188.703125-1.007812 1.75-.511719 3.074219-.0625 3.753906.449219.679688.449219.679688-.363281.628907-.8125-.046876-2.210938.183593-3.21875 1.929687-.730469 1.265625-.195313 3.253906 1.699219 4.347656 2.042968 1.183594 5.824218-1.601562 9.535156-1.347656-3.285156 2.085937-7.667969 1.757813-8.867188 3.839844-1.011718 1.75-.5625 3.886719.703125 4.613281 1.746094 1.011719 3.070313.511719 3.75.0625.679688-.449219.679688-.449219.632813.363281-.050782.816407.179687 2.210938 1.929687 3.21875 1.261719.730469 3.253907.195313 4.347657-1.695312 1.21875-2.113281-1.785157-6.070313-1.316407-9.894531 2.316407 3.078124 1.695313 8.007812 3.804688 9.226562 1.894531 1.09375 3.886719.558594 4.617187-.703125 1.007813-1.75.511719-3.074219.0625-3.753906-.449218-.679688-.449218-.679688.363282-.628907.8125.046876 2.207031-.183593 3.21875-1.933593.730468-1.261719.050781-3.335938-1.699219-4.347657-2.082031-1.199218-5.710938 1.273438-9.601563 1.109376 3.089844-2.070313 7.753906-1.554688 8.933594-3.597657 1.09375-1.894531.5625-3.886719-.703125-4.613281-1.746094-1.011719-3.070313-.511719-3.75-.0625s-.679687.449219-.632813-.367188c.050782-.8125-.179687-2.207031-1.929687-3.21875zm0 0" fill="url(#g)"/><path d="m17.589844 2.9375c-1.144532-.003906-2.460938.703125-3.203125 1.988281-.261719.453125-.347657.976563-.328125 1.5625.019531-.453125.117187-.867187.328125-1.230469 1.007812-1.75 3.085937-2.429687 4.347656-1.699218 1.515625.875 1.890625 2.035156 1.929687 2.859375.042969-.816407-.199218-2.191407-1.929687-3.191407-.335937-.191406-.726563-.285156-1.144531-.289062zm-7.730469 2.101562c-1.117187-.003906-2.121094.46875-2.578125 1.257813-.476562.824219-.617188 1.554687-.585938 2.167969.027344-.539063.191407-1.15625.585938-1.839844.730469-1.261719 2.867188-1.710938 4.617188-.703125 1.996093 1.15625 1.773437 5.246094 3.605468 8.476563-.003906-.113282-.007812-.230469-.011718-.34375-1.820313-3.230469-1.601563-7.308594-3.59375-8.460938-.65625-.378906-1.367188-.550781-2.039063-.554688zm13.15625 1.246094c-.75.003906-1.335937.273438-1.71875.527344-.46875.304688-.613281.402344-.644531.171875-.03125.597656.027344.5625.644531.15625.679687-.449219 2.003906-.949219 3.75.0625.75.433594 1.246094 1.3125 1.292969 2.351563.050781-1.179688-.464844-2.203126-1.292969-2.679688-.765625-.445312-1.449219-.597656-2.03125-.589844zm-16.320313 4.390625c-.828124-.007812-2.113281.296875-3.058593 1.933594-.234375.40625-.335938.886719-.308594 1.386719.023437-.378906.125-.742188.308594-1.054688 1.007812-1.75 2.40625-1.980468 3.21875-1.929687.664062.039062.785156.046875.5625-.324219-.101563.019531-.285157.011719-.5625-.007812-.050781-.003907-.105469-.003907-.160157-.003907zm18.335938 2.972657c-2-.003907-4.75 1.398437-7.683594 1.445312-.179687.097656-.359375.207031-.53125.320312 3.890625.164063 7.519532-2.308593 9.601563-1.105468 1.21875.703125 1.917969 1.925781 1.984375 3.03125.070312-1.183594-.640625-2.585938-1.984375-3.363282-.40625-.234374-.871094-.328124-1.386719-.328124zm-10.683594 2.273437c-.003906 0-.007812 0-.011718 0-3.210938 1.746094-7.195313 1.558594-8.332032 3.527344-.414062.714843-.582031 1.492187-.550781 2.214843.023437-.625.199219-1.28125.550781-1.886718 1.199219-2.078125 5.582032-1.753906 8.867188-3.839844-.175782-.011719-.347656-.015625-.523438-.015625zm1.65625 1.203125c-.066406 2.871094 1.566406 5.753906 1.652344 7.8125.09375-1.996094-1.589844-4.894531-1.652344-7.8125zm8.332032 3.453125c-.199219.039063-.097657.191406.199218.640625.234375.359375.488282.894531.523438 1.582031.042968-.84375-.25-1.5-.523438-1.914062-.085937-.125-.152344-.226563-.199218-.308594zm-13.234376 3.703125c-.003906.0625-.007812.132812-.011718.207031-.007813.109375-.007813.230469-.003906.359375.003906-.011718.003906-.019531.003906-.027344.015625-.257812.023437-.433593.011718-.539062zm0 0" fill="#fff" fill-opacity=".392157"/><path d="m20.660156 6.011719c-.015625.257812-.023437.425781 0 .519531 0-.027344.003906-.054688.003906-.085938.007813-.128906.007813-.273437-.003906-.433593zm-6.597656.070312c-.117188 1.917969 1.242188 4.585938 1.421875 7.460938.003906.011719.011719.023437.019531.035156-.027344-2.832031-1.332031-5.5-1.441406-7.496094zm-7.359375 1.972657c-.070313.882812.234375 1.566406.515625 1.996093.039062.054688.074219.109375.105469.15625.316406-.011719.230469-.140625-.105469-.648437-.226562-.347656-.46875-.855469-.515625-1.503906zm19.628906 1.089843c-.039062.597657-.222656 1.230469-.582031 1.851563-1.179688 2.046875-5.84375 1.527344-8.933594 3.597656.289063.011719.578125.011719.863282-.003906 3.03125-1.503906 6.996093-1.238282 8.070312-3.101563.460938-.796875.632812-1.613281.582031-2.34375zm-22.996093 4.445313c-.105469 1.160156.546874 2.53125 2 3.367187 1.886718 1.089844 5.25-1.191406 8.671874-1.355469.292969-.148437.582032-.308593.863282-.484374-3.710938-.25-7.492188 2.53125-9.535156 1.351562-1.253907-.726562-1.910157-1.839844-2-2.878906zm12.714843 2.035156c-.046875.363281-.058593.726562-.046875 1.089844.007813-.199219.023438-.398438.046875-.597656 2.316407 3.078124 1.695313 8.007812 3.804688 9.226562 1.894531 1.09375 3.886719.558594 4.617187-.703125.496094-.863281.628906-1.621094.578125-2.25-.039062.519531-.207031 1.109375-.578125 1.757813-.730468 1.261718-2.722656 1.796874-4.617187.703124-2.109375-1.21875-1.488281-6.148437-3.804688-9.226562zm12.34375 1.300781c-.03125.328125-.121093.636719-.277343.910157-1.011719 1.746093-2.40625 1.976562-3.21875 1.929687-.746094-.046875-.808594-.046875-.46875.472656.109374-.003906.261718.003907.46875.019531.8125.046876 2.207031-.183593 3.21875-1.933593.234374-.402344.320312-.890625.277343-1.398438zm-22.9375 4.328125c-.078125 1.207032.40625 2.324219 1.25 2.808594 1.746094 1.011719 3.070313.511719 3.75.0625.4375-.289062.59375-.390625.636719-.210938.042969-.726562.019531-.714843-.636719-.28125-.679687.449219-2.003906.949219-3.75-.0625-.730469-.417968-1.1875-1.304687-1.25-2.316406zm5.636719 3.179688c-.003906.019531-.003906.035156-.003906.054687-.050782.816407.179687 2.210938 1.929687 3.21875 1.261719.730469 3.253907.195313 4.347657-1.695312.246093-.425781.320312-.929688.285156-1.488281-.027344.363281-.113282.699218-.285156.996093-1.09375 1.894531-3.085938 2.425781-4.347657 1.699219-1.46875-.847656-1.867187-1.96875-1.925781-2.785156zm0 0" fill-opacity=".235294"/><path d="m299.721378-163.379929c-20.185572-11.62389-53.432397-.749929-69.555858 27.184904-18.498233 31.996944 17.310847 86.866704 17.873293 146.298529-29.309701-51.745059-25.747541-117.176311-57.681991-135.61205-27.997327-16.12346-62.181562-8.936647-73.867946 11.248926-16.12346 27.997326-8.186718 49.182803-.999905 60.056765 7.186814 10.873961 7.186814 10.873961-5.811945 10.061539-12.998758-.749929-35.371622 2.937219-51.495082 30.872052-11.686384 20.248066-3.124702 52.057528 27.184904 69.555857 32.684379 18.935692 93.178602-25.622553 152.547932-21.560441-52.557481 33.371813-122.675785 28.122315-141.861453 61.431634-16.185954 27.997326-8.99914 62.181562 11.248926 73.805452 27.934833 16.185954 49.120309 8.186718 59.994271.999904 10.873962-7.186813 10.873962-7.186813 10.124033 5.811945-.812422 13.061253 2.874726 35.371623 30.872052 51.495083 20.185572 11.686384 52.057529 3.124701 69.555858-27.12241 19.498138-33.809272-28.559773-97.115726-21.060489-158.297383 37.058961 49.245297 27.12241 128.112765 60.869187 147.610903 30.309606 17.498329 62.181562 8.936647 73.867946-11.248925 16.123461-27.997327 8.186718-49.182804.999905-60.056765-7.186814-10.873962-7.186814-10.873962 5.811945-10.061539 12.998758.749928 35.309128-2.93722 51.495082-30.934546 11.686384-20.185573.812423-53.369904-27.184904-69.555858-33.309319-19.185668-91.366275 20.373054-153.610331 17.748305 49.43278-33.121837 124.050654-24.872625 142.923852-57.557004 17.498329-30.309605 8.99914-62.181561-11.248926-73.805451-27.934832-16.185955-49.120309-8.186719-59.994271-.999905-10.873961 7.186814-10.873961 7.186814-10.124033-5.874439.812422-12.998759-2.874726-35.309128-30.872052-51.495082zm0 0" fill="none" stroke="#212121" stroke-linecap="round" stroke-linejoin="round" stroke-width="3" transform="matrix(.062506 0 0 .062506 0 13.438783)"/></svg>

<?xml version="1.0" encoding="UTF-8"?>
<svg xmlns="http://www.w3.org/2000/svg" xmlns:xlink="http://www.w3.org/1999/xlink" width="32px" height="32px" viewBox="0 0 32 32" version="1.1">
<defs>
<radialGradient id="radial0" gradientUnits="userSpaceOnUse" cx="450.908936" cy="189.579361" fx="450.908936" fy="189.579361" r="21.166656" gradientTransform="matrix(0.00000017417,-0.0781325,-0.140638,-0.000000101539,41.215544,63.595329)">
<stop offset="0" style="stop-color:rgb(0%,0%,0%);stop-opacity:0.313726;"/>
<stop offset="0.222222" style="stop-color:rgb(0%,0%,0%);stop-opacity:0.27451;"/>
<stop offset="1" style="stop-color:rgb(0%,0%,0%);stop-opacity:0;"/>
</radialGradient>
<radialGradient id="radial1" gradientUnits="userSpaceOnUse" cx="450.908936" cy="189.579361" fx="450.908936" fy="189.579361" r="21.166656" gradientTransform="matrix(-0.00000017417,0.0781325,0.140638,0.000000101539,-12.770116,-7.527482)">
<stop offset="0" style="stop-color:rgb(0%,0%,0%);stop-opacity:0.313726;"/>
<stop offset="0.222222" style="stop-color:rgb(0%,0%,0%);stop-opacity:0.27451;"/>
<stop offset="1" style="stop-color:rgb(0%,0%,0%);stop-opacity:0;"/>
</radialGradient>
<radialGradient id="radial2" gradientUnits="userSpaceOnUse" cx="450.908936" cy="189.579361" fx="450.908936" fy="189.579361" r="21.166656" gradientTransform="matrix(-0.00000017417,-0.0781325,0.140638,-0.000000101539,-12.770116,63.595329)">
<stop offset="0" style="stop-color:rgb(0%,0%,0%);stop-opacity:0.313726;"/>
<stop offset="0.222222" style="stop-color:rgb(0%,0%,0%);stop-opacity:0.27451;"/>
<stop offset="1" style="stop-color:rgb(0%,0%,0%);stop-opacity:0;"/>
</radialGradient>
<radialGradient id="radial3" gradientUnits="userSpaceOnUse" cx="450.908936" cy="189.579361" fx="450.908936" fy="189.579361" r="21.166656" gradientTransform="matrix(0.00000017417,0.0781325,-0.140638,0.000000101539,41.215542,-7.527483)">
<stop offset="0" style="stop-color:rgb(0%,0%,0%);stop-opacity:0.313726;"/>
<stop offset="0.222222" style="stop-color:rgb(0%,0%,0%);stop-opacity:0.27451;"/>
<stop offset="1" style="stop-color:rgb(0%,0%,0%);stop-opacity:0;"/>
</radialGradient>
<linearGradient id="linear0" gradientUnits="userSpaceOnUse" x1="255.323059" y1="233.5" x2="255.323044" y2="254.666656" gradientTransform="matrix(0.00381716,0,0,0.062506,13.248104,13.438784)">
<stop offset="0" style="stop-color:rgb(0%,0%,0%);stop-opacity:0.27451;"/>
<stop offset="1" style="stop-color:rgb(0%,0%,0%);stop-opacity:0;"/>
</linearGradient>
<linearGradient id="linear1" gradientUnits="userSpaceOnUse" x1="254" y1="233.5" x2="254" y2="-168.666672" gradientTransform="matrix(0.0631456,0,0,0.0631456,-0.16234,13.400864)">
<stop offset="0" style="stop-color:rgb(40.000001%,73.333335%,41.568628%);stop-opacity:1;"/>
<stop offset="1" style="stop-color:rgb(50.588238%,78.039217%,51.764709%);stop-opacity:1;"/>
</linearGradient>
</defs>
<g id="surface1">
<path style=" stroke:none;fill-rule:nonzero;fill:url(#radial0);" d="M 14.882812 28.035156 L 17.53125 28.035156 L 17.53125 26.710938 L 14.882812 26.710938 Z M 14.882812 28.035156 "/>
<path style=" stroke:none;fill-rule:nonzero;fill:url(#radial1);" d="M 13.5625 28.035156 L 10.914062 28.035156 L 10.914062 29.355469 L 13.5625 29.355469 Z M 13.5625 28.035156 "/>
<path style=" stroke:none;fill-rule:nonzero;fill:url(#radial2);" d="M 13.5625 28.035156 L 10.914062 28.035156 L 10.914062 26.710938 L 13.5625 26.710938 Z M 13.5625 28.035156 "/>
<path style=" stroke:none;fill-rule:nonzero;fill:url(#radial3);" d="M 14.882812 28.035156 L 17.53125 28.035156 L 17.53125 29.355469 L 14.882812 29.355469 Z M 14.882812 28.035156 "/>
<path style=" stroke:none;fill-rule:nonzero;fill:url(#linear0);" d="M 13.5625 27.703125 L 14.882812 27.703125 L 14.882812 29.355469 L 13.5625 29.355469 Z M 13.5625 27.703125 "/>
<path style=" stroke:none;fill-rule:nonzero;fill:url(#linear1);" d="M 18.734375 3.226562 C 17.472656 2.5 15.394531 3.179688 14.386719 4.925781 C 13.230469 6.925781 15.46875 10.355469 15.503906 14.070312 C 13.671875 10.835938 13.894531 6.746094 11.898438 5.59375 C 10.148438 4.585938 8.011719 5.035156 7.28125 6.296875 C 6.273438 8.046875 6.769531 9.371094 7.21875 10.050781 C 7.667969 10.730469 7.667969 10.730469 6.855469 10.679688 C 6.042969 10.632812 4.644531 10.863281 3.636719 12.609375 C 2.90625 13.875 3.441406 15.863281 5.335938 16.957031 C 7.378906 18.140625 11.160156 15.355469 14.871094 15.609375 C 11.585938 17.695312 7.203125 17.367188 6.003906 19.449219 C 4.992188 21.199219 5.441406 23.335938 6.707031 24.0625 C 8.453125 25.074219 9.777344 24.574219 10.457031 24.125 C 11.136719 23.675781 11.136719 23.675781 11.089844 24.488281 C 11.039062 25.304688 11.269531 26.699219 13.019531 27.707031 C 14.28125 28.4375 16.273438 27.902344 17.367188 26.011719 C 18.585938 23.898438 15.582031 19.941406 16.050781 16.117188 C 18.367188 19.195312 17.746094 24.125 19.855469 25.34375 C 21.75 26.4375 23.742188 25.902344 24.472656 24.640625 C 25.480469 22.890625 24.984375 21.566406 24.535156 20.886719 C 24.085938 20.207031 24.085938 20.207031 24.898438 20.257812 C 25.710938 20.304688 27.105469 20.074219 28.117188 18.324219 C 28.847656 17.0625 28.167969 14.988281 26.417969 13.976562 C 24.335938 12.777344 20.707031 15.25 16.816406 15.085938 C 19.90625 13.015625 24.570312 13.53125 25.75 11.488281 C 26.84375 9.59375 26.3125 7.601562 25.046875 6.875 C 23.300781 5.863281 21.976562 6.363281 21.296875 6.8125 C 20.617188 7.261719 20.617188 7.261719 20.664062 6.445312 C 20.714844 5.632812 20.484375 4.238281 18.734375 3.226562 Z M 18.734375 3.226562 "/>
<path style=" stroke:none;fill-rule:nonzero;fill:rgb(100%,100%,100%);fill-opacity:0.392157;" d="M 17.589844 2.9375 C 16.445312 2.933594 15.128906 3.640625 14.386719 4.925781 C 14.125 5.378906 14.039062 5.902344 14.058594 6.488281 C 14.078125 6.035156 14.175781 5.621094 14.386719 5.257812 C 15.394531 3.507812 17.472656 2.828125 18.734375 3.558594 C 20.25 4.433594 20.625 5.59375 20.664062 6.417969 C 20.707031 5.601562 20.464844 4.226562 18.734375 3.226562 C 18.398438 3.035156 18.007812 2.941406 17.589844 2.9375 Z M 9.859375 5.039062 C 8.742188 5.035156 7.738281 5.507812 7.28125 6.296875 C 6.804688 7.121094 6.664062 7.851562 6.695312 8.464844 C 6.722656 7.925781 6.886719 7.308594 7.28125 6.625 C 8.011719 5.363281 10.148438 4.914062 11.898438 5.921875 C 13.894531 7.078125 13.671875 11.167969 15.503906 14.398438 C 15.5 14.285156 15.496094 14.167969 15.492188 14.054688 C 13.671875 10.824219 13.890625 6.746094 11.898438 5.59375 C 11.242188 5.214844 10.53125 5.042969 9.859375 5.039062 Z M 23.015625 6.285156 C 22.265625 6.289062 21.679688 6.558594 21.296875 6.8125 C 20.828125 7.117188 20.683594 7.214844 20.652344 6.984375 C 20.621094 7.582031 20.679688 7.546875 21.296875 7.140625 C 21.976562 6.691406 23.300781 6.191406 25.046875 7.203125 C 25.796875 7.636719 26.292969 8.515625 26.339844 9.554688 C 26.390625 8.375 25.875 7.351562 25.046875 6.875 C 24.28125 6.429688 23.597656 6.277344 23.015625 6.285156 Z M 6.695312 10.675781 C 5.867188 10.667969 4.582031 10.972656 3.636719 12.609375 C 3.402344 13.015625 3.300781 13.496094 3.328125 13.996094 C 3.351562 13.617188 3.453125 13.253906 3.636719 12.941406 C 4.644531 11.191406 6.042969 10.960938 6.855469 11.011719 C 7.519531 11.050781 7.640625 11.058594 7.417969 10.6875 C 7.316406 10.707031 7.132812 10.699219 6.855469 10.679688 C 6.804688 10.675781 6.75 10.675781 6.695312 10.675781 Z M 25.03125 13.648438 C 23.03125 13.644531 20.28125 15.046875 17.347656 15.09375 C 17.167969 15.191406 16.988281 15.300781 16.816406 15.414062 C 20.707031 15.578125 24.335938 13.105469 26.417969 14.308594 C 27.636719 15.011719 28.335938 16.234375 28.402344 17.339844 C 28.472656 16.15625 27.761719 14.753906 26.417969 13.976562 C 26.011719 13.742188 25.546875 13.648438 25.03125 13.648438 Z M 14.347656 15.921875 C 14.34375 15.921875 14.339844 15.921875 14.335938 15.921875 C 11.125 17.667969 7.140625 17.480469 6.003906 19.449219 C 5.589844 20.164062 5.421875 20.941406 5.453125 21.664062 C 5.476562 21.039062 5.652344 20.382812 6.003906 19.777344 C 7.203125 17.699219 11.585938 18.023438 14.871094 15.9375 C 14.695312 15.925781 14.523438 15.921875 14.347656 15.921875 Z M 16.003906 17.125 C 15.9375 19.996094 17.570312 22.878906 17.65625 24.9375 C 17.75 22.941406 16.066406 20.042969 16.003906 17.125 Z M 24.335938 20.578125 C 24.136719 20.617188 24.238281 20.769531 24.535156 21.21875 C 24.769531 21.578125 25.023438 22.113281 25.058594 22.800781 C 25.101562 21.957031 24.808594 21.300781 24.535156 20.886719 C 24.449219 20.761719 24.382812 20.660156 24.335938 20.578125 Z M 11.101562 24.28125 C 11.097656 24.34375 11.09375 24.414062 11.089844 24.488281 C 11.082031 24.597656 11.082031 24.71875 11.085938 24.847656 C 11.089844 24.835938 11.089844 24.828125 11.089844 24.820312 C 11.105469 24.5625 11.113281 24.386719 11.101562 24.28125 Z M 11.101562 24.28125 "/>
<path style=" stroke:none;fill-rule:nonzero;fill:rgb(0%,0%,0%);fill-opacity:0.235294;" d="M 20.660156 6.011719 C 20.644531 6.269531 20.636719 6.4375 20.660156 6.53125 C 20.660156 6.503906 20.664062 6.476562 20.664062 6.445312 C 20.671875 6.316406 20.671875 6.171875 20.660156 6.011719 Z M 14.0625 6.082031 C 13.945312 8 15.304688 10.667969 15.484375 13.542969 C 15.488281 13.554688 15.496094 13.566406 15.503906 13.578125 C 15.476562 10.746094 14.171875 8.078125 14.0625 6.082031 Z M 6.703125 8.054688 C 6.632812 8.9375 6.9375 9.621094 7.21875 10.050781 C 7.257812 10.105469 7.292969 10.160156 7.324219 10.207031 C 7.640625 10.195312 7.554688 10.066406 7.21875 9.558594 C 6.992188 9.210938 6.75 8.703125 6.703125 8.054688 Z M 26.332031 9.144531 C 26.292969 9.742188 26.109375 10.375 25.75 10.996094 C 24.570312 13.042969 19.90625 12.523438 16.816406 14.59375 C 17.105469 14.605469 17.394531 14.605469 17.679688 14.589844 C 20.710938 13.085938 24.675781 13.351562 25.75 11.488281 C 26.210938 10.691406 26.382812 9.875 26.332031 9.144531 Z M 3.335938 13.589844 C 3.230469 14.75 3.882812 16.121094 5.335938 16.957031 C 7.222656 18.046875 10.585938 15.765625 14.007812 15.601562 C 14.300781 15.453125 14.589844 15.292969 14.871094 15.117188 C 11.160156 14.867188 7.378906 17.648438 5.335938 16.46875 C 4.082031 15.742188 3.425781 14.628906 3.335938 13.589844 Z M 16.050781 15.625 C 16.003906 15.988281 15.992188 16.351562 16.003906 16.714844 C 16.011719 16.515625 16.027344 16.316406 16.050781 16.117188 C 18.367188 19.195312 17.746094 24.125 19.855469 25.34375 C 21.75 26.4375 23.742188 25.902344 24.472656 24.640625 C 24.96875 23.777344 25.101562 23.019531 25.050781 22.390625 C 25.011719 22.910156 24.84375 23.5 24.472656 24.148438 C 23.742188 25.410156 21.75 25.945312 19.855469 24.851562 C 17.746094 23.632812 18.367188 18.703125 16.050781 15.625 Z M 28.394531 16.925781 C 28.363281 17.253906 28.273438 17.5625 28.117188 17.835938 C 27.105469 19.582031 25.710938 19.8125 24.898438 19.765625 C 24.152344 19.71875 24.089844 19.71875 24.429688 20.238281 C 24.539062 20.234375 24.691406 20.242188 24.898438 20.257812 C 25.710938 20.304688 27.105469 20.074219 28.117188 18.324219 C 28.351562 17.921875 28.4375 17.433594 28.394531 16.925781 Z M 5.457031 21.253906 C 5.378906 22.460938 5.863281 23.578125 6.707031 24.0625 C 8.453125 25.074219 9.777344 24.574219 10.457031 24.125 C 10.894531 23.835938 11.050781 23.734375 11.09375 23.914062 C 11.136719 23.1875 11.113281 23.199219 10.457031 23.632812 C 9.777344 24.082031 8.453125 24.582031 6.707031 23.570312 C 5.976562 23.152344 5.519531 22.265625 5.457031 21.253906 Z M 11.09375 24.433594 C 11.089844 24.453125 11.089844 24.46875 11.089844 24.488281 C 11.039062 25.304688 11.269531 26.699219 13.019531 27.707031 C 14.28125 28.4375 16.273438 27.902344 17.367188 26.011719 C 17.613281 25.585938 17.6875 25.082031 17.652344 24.523438 C 17.625 24.886719 17.539062 25.222656 17.367188 25.519531 C 16.273438 27.414062 14.28125 27.945312 13.019531 27.21875 C 11.550781 26.371094 11.152344 25.25 11.09375 24.433594 Z M 11.09375 24.433594 "/>
<path style="fill:none;stroke-width:3;stroke-linecap:round;stroke-linejoin:round;stroke:rgb(12.941177%,12.941177%,12.941177%);stroke-opacity:1;stroke-miterlimit:4;" d="M 299.721378 -163.379929 C 279.535806 -175.003819 246.288981 -164.129858 230.16552 -136.195025 C 211.667287 -104.198081 247.476367 -49.328321 248.038813 10.103504 C 218.729112 -41.641555 222.291272 -107.072807 190.356822 -125.508546 C 162.359495 -141.632006 128.17526 -134.445193 116.488876 -114.25962 C 100.365416 -86.262294 108.302158 -65.076817 115.488971 -54.202855 C 122.675785 -43.328894 122.675785 -43.328894 109.677026 -44.141316 C 96.678268 -44.891245 74.305404 -41.204097 58.181944 -13.269264 C 46.49556 6.978802 55.057242 38.788264 85.366848 56.286593 C 118.051227 75.222285 178.54545 30.66404 237.91478 34.726152 C 185.357299 68.097965 115.238995 62.848467 96.053327 96.157786 C 79.867373 124.155112 87.054187 158.339348 107.302253 169.963238 C 135.237086 186.149192 156.422562 178.149956 167.296524 170.963142 C 178.170486 163.776329 178.170486 163.776329 177.420557 176.775087 C 176.608135 189.83634 180.295283 212.14671 208.292609 228.27017 C 228.478181 239.956554 260.350138 231.394871 277.848467 201.14776 C 297.346605 167.338488 249.288694 104.032034 256.787978 42.850377 C 293.846939 92.095674 283.910388 170.963142 317.657165 190.46128 C 347.966771 207.959609 379.838727 199.397927 391.525111 179.212355 C 407.648572 151.215028 399.711829 130.029551 392.525016 119.15559 C 385.338202 108.281628 385.338202 108.281628 398.336961 109.094051 C 411.335719 109.843979 433.646089 106.156831 449.832043 78.159505 C 461.518427 57.973932 450.644466 24.789601 422.647139 8.603647 C 389.33782 -10.582021 331.280864 28.976701 269.036808 26.351952 C 318.469588 -6.769885 393.087462 1.479327 411.96066 -31.205052 C 429.458989 -61.514657 420.9598 -93.386613 400.711734 -105.010503 C 372.776902 -121.196458 351.591425 -113.197222 340.717463 -106.010408 C 329.843502 -98.823594 329.843502 -98.823594 330.59343 -111.884847 C 331.405852 -124.883606 327.718704 -147.193975 299.721378 -163.379929 Z M 299.721378 -163.379929 " transform="matrix(0.062506,0,0,0.062506,0,13.438783)"/>
</g>
</svg>
